svgs/plainapp.svg

<svg width="192" height="192" viewBox="0 0 192 192" fill="none" xmlns="http://www.w3.org/2000/svg">
<path d="M40 35C40 27.8203 45.8203 22 53 22H106C133.614 22 156 44.3858 156 72V91C156 118.614 133.614 141 106 141H91.5C88.1863 141 85.5 143.686 85.5 147V150C85.5 161.046 76.5457 170 65.5 170H60C48.9543 170 40 161.046 40 150V35Z" stroke="black" stroke-width="12"/>
<circle cx="95" cy="81" r="23" stroke="black" stroke-width="12"/>
</svg>

<svg xmlns="http://www.w3.org/2000/svg" width="192" height="192" fill="none" viewBox="0 0 192 192"><path stroke="#000" stroke-width="12" d="M40 35c0-7.18 5.82-13 13-13h53c27.614 0 50 22.386 50 50v19c0 27.614-22.386 50-50 50H91.5a6 6 0 0 0-6 6v3c0 11.046-8.954 20-20 20H60c-11.046 0-20-8.954-20-20z"/><circle cx="95" cy="81" r="23" stroke="#000" stroke-width="12"/></svg>
